packages/ffe-icons/icons/filled/md/filter_1.svg

<svg xmlns="http://www.w3.org/2000/svg" height="24" viewBox="0 -960 960 960" width="24"><path d="M560-690.001V-400q0 12.769 8.615 21.384t21.384 8.615q12.769 0 21.384-8.615 8.616-8.615 8.616-21.384v-313.846q0-15.461-10.347-25.807-10.346-10.346-25.807-10.346h-73.846q-12.769 0-21.384 8.615T480-720q0 12.769 8.615 21.384t21.384 8.615H560Zm-237.692 430q-30.308 0-51.307-21-21-21-21-51.308v-455.382q0-30.308 21-51.308 20.999-21 51.307-21h455.383q30.307 0 51.307 21 21 21 21 51.308v455.382q0 30.308-21 51.308t-51.307 21H322.308ZM182.309-120.003q-30.307 0-51.307-21-21-21-21-51.307v-485.382q0-12.769 8.615-21.384 8.616-8.615 21.384-8.615 12.769 0 21.385 8.615 8.615 8.615 8.615 21.384v485.382q0 4.616 3.846 8.462 3.847 3.847 8.462 3.847h485.382q12.769 0 21.385 8.615 8.615 8.615 8.615 21.384t-8.615 21.384q-8.616 8.615-21.385 8.615H182.309Z"/></svg>

<svg xmlns="http://www.w3.org/2000/svg" height="24" viewBox="0 -960 960 960" width="24"><path d="M560-690v290q0 12.77 8.62 21.38Q577.23-370 590-370t21.38-8.62Q620-387.23 620-400v-313.85q0-15.46-10.35-25.8Q599.31-750 583.84-750H510q-12.77 0-21.38 8.62Q480-732.77 480-720t8.62 21.38Q497.23-690 510-690h50ZM322.31-260Q292-260 271-281q-21-21-21-51.31v-455.38Q250-818 271-839q21-21 51.31-21h455.38Q808-860 829-839q21 21 21 51.31v455.38Q850-302 829-281q-21 21-51.31 21H322.31Zm-140 140Q152-120 131-141q-21-21-21-51.31v-485.38q0-12.77 8.62-21.39 8.61-8.61 21.38-8.61t21.39 8.61q8.61 8.62 8.61 21.39v485.38q0 4.62 3.85 8.46 3.84 3.85 8.46 3.85h485.38q12.77 0 21.39 8.61 8.61 8.62 8.61 21.39 0 12.77-8.61 21.38-8.62 8.62-21.39 8.62H182.31Z"/></svg>
